X:76
T:Danse des Paysans dans le Dioc\`ese de Bergen en Norvege.
%(several peasant dances from the Bergen Diocese in Norway. These continue through page 79)
T:John Malchair's Third Collection of Tunes
%%VWML:Malchair-3619-p76
F:https://www.vwml.org/record/Malchair/3619/p76
F:www.vwml.org/topics/historic-dance-and-tune-books/Malchair
Z:Eric Conrad Mar 2020
M:6/8
L:1/8
Q:"Grazioso"
K:Ddor
e | e>fd d>^cd | e>fd d>^cd | e>fd g>af | e3 Az :|
e | f2a aga | fed gaf | e3 az e | f2a aga | fed d^cd | efg fe^c | d3 x3 ||
T:autre.
M:3/4
K:Am
ef df e^c | fa ag af | ef df e^c | A^G A4 ||
efdf e^c | fa agaf | efdf e^c | fa ag af |
efdf e^c | A^GAB^cd | efdf e^c | A^G A4 ||
T:autre.
M:3/4
K:Eb
|: g2 (gf)(ga) | (gf)(ed) (ef) | g(fa)g fe | (de/f/) (ed)(ec) |
g2 (gf)(ga) | (gf) (ed) (ef) | g(eag) (fe) | (de/f/) {f}e4 :|
% This tune continues on page 77

